X:1
T:Light Breaks upon the Tomb
T:Light Breaks upon the Tomb
T:H. W. Porter
T:William Clark Martin, 1901
T:Public Domain Courtesy of the Cyber Hymnal™
T:Public Domain Courtesy of the Cyber Hymnal™
C:H. W. Porter
Z:Public Domain
Z:Courtesy of the Cyber Hymnal™
%%score ( 1 2 ) ( 3 4 )
L:1/8
Q:1/4=100
M:4/4
K:A
V:1 treble 
V:2 treble 
V:3 bass 
V:4 bass 
V:1
 [CE]2 | [CE]3 [CE] [DF]>[EG] [FA]>[FB] | [Ec]4- [Ec][EA] [EA]>[EA] | [FA]3 [FA] [FB]2 [FA]2 | %4
w: 1.~He|fell, the Prince of Glo- ry|fell * Be- neath the|might- y stroke of|
w: 2.~He|knew the sha- dow of the|tomb, * He knew its|pain, its grief, its|
w: 3.~O|might- y death, where is thy|sting, * Since thou didst|meet the heav’n- ly|
 E6 [CE]2 | [B,^D]3 [DF] [DB]2 [FA]2 | [EG]2 [^DA]2 [EB]2 [Ec]2 | [EB]3 [Ec] [EG]2 [^DF]2 | E6 E2 | %9
w: hell; But|when the strife was|done, And all the|foe’s de- vic- es|spent, He|
w: gloom, For|He was ’mong the|dead; But now its|gloom is swept a-|way, And|
w: King, Whom|a- ngels all a-|dore? Lo, He is|mon- arch of the|sky, The|
 [EB]3 [EA] [EG]2 [EG]2 | [Ed]3 [Ec] [EB]2 [EB]2 | [Ec]2 [Ec]2 [A^d]3 [Ad] | [Ge]6 z2 || %13
w: grand- ly rose, their|fet- ters rent, And|last- ing tri- umph|won.|
w: death and hell yield|up their prey, We|fol- low as He|led.|
w: glo- ry of that|realm on high, For-|ev- er, ev- er-|more.|
"^Refrain"!ff! [Ee]4 [Ee]>[Cc] [A,A]>[Cc] | [Ee]6 c2 | c3 A F2 [FA]2 | [^Ec]6 [Ec]2 | %17
w: ||||
w: Light breaks up- on the|tomb, For|Christ dis- pels its|gloom; O|
w: ||||
 F2 [EG]2 [EA]2 [EB]2 | [Ec]2 [Ad]2 [Ae]2 [Fd]2 | [Ec]3 [Ac]"^riten." [Ae]2 [Ge]2 | [EA]6 |] %21
w: ||||
w: Christ- ian, brush your|tears a- way, For|Christ is ris’n to-|day.|
w: ||||
V:2
 x2 | x8 | x8 | x8 | E6 x2 | x8 | x8 | x8 | E6 E2 | x8 | x8 | x8 | x8 || x8 | x6 c2 | c3 A F2 x2 | %16
 x8 | F2 x6 | x8 | x8 | x6 |] %21
V:3
 [A,,A,]2 | [A,,A,]3 [A,,A,] [D,A,]>[D,A,] [D,A,]>[D,A,] | [A,,A,]4- [A,,A,][C,A,] [C,A,]>[C,A,] | %3
 [D,A,]3 [D,D] [D,D]2 [D,A,]2 | [C,A,]6 [A,,A,]2 | [B,,A,]3 [B,,A,] [B,,A,]2 [^D,B,]2 | %6
 [E,B,]2 [F,B,]2 [G,B,]2 A,2 | [G,E]3 [A,E] B,2 [B,,A,]2 | [E,G,]6 [E,G,]2 | %9
 [E,D]3 [E,C] [E,B,]2 [E,B,]2 | [E,B,]3 [E,A,] [E,G,]2 [E,G,]2 | A,2 A,2 [F,B,]3 [F,B,] | %12
 [E,B,]6 z2 || [E,E]4 [E,E]>[C,C] [A,,A,]>[C,C] | [E,E]6 C2 | C3 A, F,2 [F,A,]2 | [C,G,]6 [C,B,]2 | %17
 [D,A,]2 [D,B,]2 [C,A,]2 [E,G,]2 | A,2 [F,A,]2 [C,A,]2 [D,A,]2 | [E,A,]3 [E,A,] [E,B,]2 [E,D]2 | %20
 [A,C]6 |] %21
V:4
 x2 | x8 | x8 | x8 | x8 | x8 | x6 A,2 | x4 B,2 x2 | x8 | x8 | x8 | A,2 A,2 x4 | x8 || x8 | x6 C2 | %15
 C3 A, F,2 x2 | x8 | x8 | A,2 x6 | x8 | x6 |] %21

